dist/icons/svgs/lock-open-outline.svg

<svg xmlns="http://www.w3.org/2000/svg" width="24" height="24" fill="currentcolor" class="icon-lock-open-outline" viewBox="0 0 24 24">
  <path d="M15 7V9.5H16.25C17.6172 9.5 18.75 10.6328 18.75 12V19.5C18.75 20.9062 17.6172 22 16.25 22H3.75C2.34375 22 1.25 20.9062 1.25 19.5V12C1.25 10.6328 2.34375 9.5 3.75 9.5H13.125V7C13.125 4.26562 15.3516 2 18.125 2C20.8594 2 23.125 4.26562 23.125 7V9.8125C23.125 10.3594 22.6953 10.75 22.1875 10.75C21.6406 10.75 21.25 10.3594 21.25 9.8125V7C21.25 5.28125 19.8438 3.875 18.125 3.875C16.3672 3.875 15 5.28125 15 7ZM3.75 11.375C3.39844 11.375 3.125 11.6875 3.125 12V19.5C3.125 19.8516 3.39844 20.125 3.75 20.125H16.25C16.5625 20.125 16.875 19.8516 16.875 19.5V12C16.875 11.6875 16.5625 11.375 16.25 11.375H3.75Z"/>
</svg>

<svg xmlns="http://www.w3.org/2000/svg" width="24" height="24" fill="currentColor" class="icon-lock-open-outline" viewBox="0 0 24 24">
  <path d="M15 7v2.5h1.25c1.367 0 2.5 1.133 2.5 2.5v7.5c0 1.406-1.133 2.5-2.5 2.5H3.75a2.47 2.47 0 0 1-2.5-2.5V12c0-1.367 1.094-2.5 2.5-2.5h9.375V7c0-2.734 2.227-5 5-5 2.734 0 5 2.266 5 5v2.813c0 .546-.43.937-.937.937-.547 0-.938-.39-.938-.937V7a3.134 3.134 0 0 0-3.125-3.125A3.11 3.11 0 0 0 15 7M3.75 11.375a.64.64 0 0 0-.625.625v7.5c0 .352.273.625.625.625h12.5a.64.64 0 0 0 .625-.625V12c0-.312-.312-.625-.625-.625z"/>
</svg>
